X: 421
T:Missa Mi mi / Agnus Dei
N: Derived from Jos9901e-Missa_Mi_mi-Agnus.krn
C: Josquin des Prez
%%abc-version 2.0
%%abcx-abcm2ps-target-version 5.9.1 (29 Sep 2008)
%%abc-creator hum2abc beta
%%abcx-conversion-date 2019/02/12 16:15:56
%%abc-edited-by Jesse Rodin
%%abc-edited-by Jesse Rodin; Victoria Chang 2012/02/15
%%abcx-initial-encoding-date 2012/02/15/
%%humdrum-veritas 2592702586
%%humdrum-veritas-data 1923535484
%%linebreak <none>
%%barnumbers 0
L: 1/4
M: 3/1
Q: 1/2=120
%%staves [1 2 3 4]
V: 1 clef=treble
V: 2 clef=treble-8
V: 3 clef=treble-8
V: 4 clef=bass
K: C
[V:1] E12- | 
[V:2] E12 | 
[V:3] z12 | 
[V:4] z12 | 
[V:1] E8D4 | 
[V:2] G12 | 
[V:3] E6DCB,4 | 
[V:4] z12 | 
[V:1] C4E4F4 | 
[V:2] A12 | 
[V:3] A,4C4D4 | 
[V:4] z12 | 
[V:1] G8A4 | 
[V:2] G8c4 | 
[V:3] E8F4 | 
[V:4] z12 | 
[V:1] G2F3EE4D2 | 
[V:2] B2A4G2F4 | 
[V:3] z2F4C2D4 | 
[V:4] z12 | 
[V:1] E12 | 
[V:2] E8z4 | 
[V:3] z2G3AB2c2BA | 
[V:4] z12 | 
[V:1] z4z4E4 | 
[V:2] B8c4 | 
[V:3] G8C4 | 
[V:4] z12 | 
[V:1] G12 | 
[V:2] B2e3dc2B4 | 
[V:3] G4z2G4E2 | 
[V:4] E,8E,4 | 
[V:1] A12- | 
[V:2] A12 | 
[V:3] F2E2C4z2C2- | 
[V:4] A,,8z2A,,2- | 
[V:1] A12 | 
[V:2] z4A4c4 | 
[V:3] CDE2F2E2C4 | 
[V:4] A,,B,,C,2D,2C,2A,,4 | 
[V:1] G12- | 
[V:2] B4G3AB2c2 | 
[V:3] z4z4G4- | 
[V:4] E,12 | 
[V:1] G12 | 
[V:2] B2e3dd4^c2 | 
[V:3] G12 | 
[V:4] z2G,3F,E,D,E,4 | 
[V:1] F2A3GG4^F2 | 
[V:2] d4z4d4 | 
[V:3] A3BcBAGA4 | 
[V:4] D,4z4D,4 | 
[V:1] G8G4 | 
[V:2] B8c4 | 
[V:3] G8E4 | 
[V:4] E,8C,4 | 
[V:1] F4E8 | 
[V:2] A8A4 | 
[V:3] F4C2c3BA2 | 
[V:4] D,4A,,8 | 
[V:1] z12 | 
[V:2] B2c3B/A/GAB2c2- | 
[V:3] G2A3G/F/EFG2A2- | 
[V:4] z2A,,4C,2B,,2A,,2 | 
[V:1] z12 | 
[V:2] cBA2GF2E/D/C3D | 
[V:3] ABc2BA2G/F/G4 | 
[V:4] C,4D,4E,4 | 
[V:1] z4z4E4 | 
[V:2] ECc3BA2G2c2 | 
[V:3] C6D2E4 | 
[V:4] z2E,4F,2E,2C,2 | 
[V:1] D8C3D | 
[V:2] BAA4^G2A4- | 
[V:3] F4D4E2F2 | 
[V:4] D,C,B,,A,,B,,4A,,3B,, | 
[V:1] E2F3EDCB,2G2 | 
[V:2] A4A4B4 | 
[V:3] E2D2F4G4 | 
[V:4] C,2D,3C,B,,A,,G,,4 | 
[V:1] F2EF2EE4D2 | 
[V:2] c6B2A4 | 
[V:3] A6G2F4 | 
[V:4] z4z4D,4 | 
[V:1] E12- | 
[V:2] z4A4G3A | 
[V:3] E12- | 
[V:4] C,2A,,4G,,F,,E,,4 | 
[V:1] E12 ||  
[V:2] B12 ||  
[V:3] E12 ||  
[V:4] E,12 ||  
[V:1]  [K:C] [K:clef=treble][M:2/1]G8 | 
[V:2]  [K:C] [K:clef=treble-8][M:2/1]B4c4 | 
[V:3]  [K:C] [K:clef=treble-8][M:2/1]E8 | 
[V:4]  [K:C] [K:clef=bass][M:2/1]z8 | 
[V:1] G8 | 
[V:2] B4e4- | 
[V:3] E8 | 
[V:4] z8 | 
[V:1] A8 | 
[V:2] e2dcd4 | 
[V:3] F8 | 
[V:4] z8 | 
[V:1] G8 | 
[V:2] e4z2e2- | 
[V:3] E8 | 
[V:4] z8 | 
[V:1] z8 | 
[V:2] edcBc4 | 
[V:3] z4A4 | 
[V:4] z8 | 
[V:1] z8 | 
[V:2] B2A4GF | 
[V:3] G2F4ED | 
[V:4] z8 | 
[V:1] z8 | 
[V:2] E3FGEA2- | 
[V:3] C3DECF2- | 
[V:4] z8 | 
[V:1] z8 | 
[V:2] A2G2F4 | 
[V:3] F2E4D2 | 
[V:4] z8 | 
[V:1] z8 | 
[V:2] E4z2E2- | 
[V:3] E4z2C2- | 
[V:4] z8 | 
[V:1] z8 | 
[V:2] EFGAB2c2 | 
[V:3] CDEFG2A2 | 
[V:4] z8 | 
[V:1] z8 | 
[V:2] B2e4d2 | 
[V:3] E2G2F4 | 
[V:4] z8 | 
[V:1] z8 | 
[V:2] e4z2e2- | 
[V:3] EFGAB2c2- | 
[V:4] z8 | 
[V:1] z8 | 
[V:2] e2f2d2e2- | 
[V:3] c2d2B2c2- | 
[V:4] z8 | 
[V:1] z8 | 
[V:2] e2dcB4 | 
[V:3] cBA4G2 | 
[V:4] z8 | 
[V:1] z8 | 
[V:2] A4z2A2- | 
[V:3] A2GFE2F2- | 
[V:4] z8 | 
[V:1] z8 | 
[V:2] A2B2G2A2- | 
[V:3] F2G2E2F2- | 
[V:4] z8 | 
[V:1] z8 | 
[V:2] A2GFE4 | 
[V:3] FED4^C2 | 
[V:4] z8 | 
[V:1] z8 | 
[V:2] D4z2D2- | 
[V:3] D3EFGA2- | 
[V:4] z8 | 
[V:1] z8 | 
[V:2] DEFGA2B2 | 
[V:3] AGFEF2G2 | 
[V:4] z8 | 
[V:1] z8 | 
[V:2] c2d2e2f2- | 
[V:3] E2F2G2A2 | 
[V:4] z8 | 
[V:1] z8 | 
[V:2] fedcB2A2- | 
[V:3] F2G4D2 | 
[V:4] z8 | 
[V:1] z8 | 
[V:2] A2d4^c2 | 
[V:3] F2G2E4 | 
[V:4] z8 | 
[V:1] F8- | 
[V:2] d4z2d2- | 
[V:3] D8- | 
[V:4] z8 | 
[V:1] F4G4- | 
[V:2] dcd2B2e2 | 
[V:3] D4E4- | 
[V:4] z8 | 
[V:1] G8 | 
[V:2] z2e3de2 | 
[V:3] E8 | 
[V:4] z8 | 
[V:1] A8- | 
[V:2] c2f2z2f2- | 
[V:3] F8- | 
[V:4] z8 | 
[V:1] A4G4- | 
[V:2] f2d2e4 | 
[V:3] F4E4- | 
[V:4] z8 | 
[V:1] G8 | 
[V:2] z2e4c2 | 
[V:3] E8 | 
[V:4] z8 | 
[V:1] F8 | 
[V:2] d2cBA4 | 
[V:3] D8 | 
[V:4] z8 | 
[V:1] G8- | 
[V:2] G3AB2c2- | 
[V:3] E8 | 
[V:4] z8 | 
[V:1] G8- | 
[V:2] c2BAB4 | 
[V:3] z4E4 | 
[V:4] z8 | 
[V:1] G8- | 
[V:2] B3cd2e2- | 
[V:3] G3AB2c2- | 
[V:4] z8 | 
[V:1] G8 | 
[V:2] e2dcd2e2 | 
[V:3] c2BAB2c2 | 
[V:4] z8 | 
[V:1] G8- | 
[V:2] d2B2c2d2 | 
[V:3] G4z2G2- | 
[V:4] z8 | 
[V:1] G8 | 
[V:2] B2e3dcB | 
[V:3] GFEDC4 | 
[V:4] z8 | 
[V:1] F8- | 
[V:2] A2B2A2d2- | 
[V:3] D4z2D2- | 
[V:4] z8 | 
[V:1] F8- | 
[V:2] d2cBc2d2 | 
[V:3] DEFGA2D2 | 
[V:4] z8 | 
[V:1] F8 | 
[V:2] z2A3Bcd | 
[V:3] z2F3GAB | 
[V:4] z8 | 
[V:1] E8 | 
[V:2] e2dcB2c2- | 
[V:3] c2BAG2A2- | 
[V:4] z8 | 
[V:1] E8 | 
[V:2] c2G2B2c2 | 
[V:3] A2E2G2A2 | 
[V:4] z8 | 
[V:1] z8 | 
[V:2] G3ABcd2- | 
[V:3] E2G4F2 | 
[V:4] z8 | 
[V:1] z8 | 
[V:2] d2c4B2 | 
[V:3] E2DCD4 | 
[V:4] z8 | 
[V:1] E8- | 
[V:2] c4z2c2 | 
[V:3] C2c3BA2 | 
[V:4] z8 | 
[V:1] E8 | 
[V:2] B2A2B4 | 
[V:3] G2A2E2G2- | 
[V:4] z8 | 
[V:1] D8- | 
[V:2] z2B2A2G2 | 
[V:3] G2FEF2G2 | 
[V:4] z8 | 
[V:1] D8 | 
[V:2] A4z2A2 | 
[V:3] D2F4ED | 
[V:4] z8 | 
[V:1] C8- | 
[V:2] G2F2G4 | 
[V:3] E2F2C3D | 
[V:4] z8 | 
[V:1] C4D4 | 
[V:2] z2A4B2 | 
[V:3] E2F4G2 | 
[V:4] z8 | 
[V:1] E8- | 
[V:2] G3AB2c2- | 
[V:3] E3FG2A2- | 
[V:4] z8 | 
[V:1] E8 | 
[V:2] c2BAB2c2 | 
[V:3] A2GFG2A2 | 
[V:4] z8 | 
[V:1] E8 ||  
[V:2] B8 ||  
[V:3] E8 ||  
[V:4] z8 ||  
[V:1]  [K:C] [K:clef=treble][M:2/0]E8- :
[V:2]  [K:C] [K:clef=treble-8][M:2/1]E3FGEA2- | 
[V:3]  [K:C] [K:clef=treble-8][M:2/1]z8 | 
[V:4]  [K:C] [K:clef=bass][M:2/1]z8 | 
[V:1] E8 | 
[V:2] A2G2A4 | 
[V:3] z8 | 
[V:4] z8 | 
[V:1] D8- :
[V:2] z2A4B2 | 
[V:3] D3EFDG2- | 
[V:4] z8 | 
[V:1] D8 | 
[V:2] G2A2B4 | 
[V:3] G2F2G4 | 
[V:4] z8 | 
[V:1] C8- :
[V:2] z8 | 
[V:3] z2G4A2 | 
[V:4] C,3D,E,C,F,2- | 
[V:1] C8 | 
[V:2] z8 | 
[V:3] F2G2A4 | 
[V:4] F,2E,2F,4 | 
[V:1] D8- :
[V:2] z2A4B2 | 
[V:3] z8 | 
[V:4] z2D,4G,2- | 
[V:1] D8 | 
[V:2] G2A2B4 | 
[V:3] z8 | 
[V:4] G,2F,2G,4 | 
[V:1] E8- :
[V:2] z8 | 
[V:3] z2B4c2 | 
[V:4] z2E,4A,2- | 
[V:1] E8 | 
[V:2] z8 | 
[V:3] A2B2c4 | 
[V:4] A,2G,2A,4 | 
[V:1] E8- :
[V:2] z2A4G2 | 
[V:3] z8 | 
[V:4] A,,6C,2- | 
[V:1] E8 | 
[V:2] A2c2B4 | 
[V:3] z6G2- | 
[V:4] C,4E,4- | 
[V:1] E8- :
[V:2] z8 | 
[V:3] G2A2E4 | 
[V:4] E,2A,,6 | 
[V:1] E8 | 
[V:2] z2c4B2 | 
[V:3] z8 | 
[V:4] C,6E,2- | 
[V:1] G8- :
[V:2] c2e2d4 | 
[V:3] z6B2- | 
[V:4] E,4G,4- | 
[V:1] G8 | 
[V:2] z8 | 
[V:3] B2c2G4 | 
[V:4] G,2C,6 | 
[V:1] A8- :
[V:2] z2c2d2e2 | 
[V:3] z2F4E2 | 
[V:4] F,3E,D,2C,2 | 
[V:1] A8 | 
[V:2] f2e4d2 | 
[V:3] D2E4F2 | 
[V:4] D,2A,,2C,2D,2 | 
[V:1] G8- :
[V:2] z2B2c2d2 | 
[V:3] G2E4D2 | 
[V:4] E,3D,C,2B,,2 | 
[V:1] G8 | 
[V:2] e2d4c2 | 
[V:3] C2D4E2 | 
[V:4] C,2G,,2B,,2C,2 | 
[V:1] F8- :
[V:2] A2B2A2d2- | 
[V:3] F2D2z2D2- | 
[V:4] D,8 | 
[V:1] F8 | 
[V:2] d2cBc2d2 | 
[V:3] DEFGA2D2 | 
[V:4] z8 | 
[V:1] G8- :
[V:2] B2c2B2e2- | 
[V:3] E4z2E2- | 
[V:4] z8 | 
[V:1] G8 | 
[V:2] e2dcd2e2 | 
[V:3] EFGAB2E2 | 
[V:4] z8 | 
[V:1] G8- :
[V:2] B4z2e2- | 
[V:3] G4z2G2- | 
[V:4] z8 | 
[V:1] G8 | 
[V:2] edcBc2Bc | 
[V:3] GFEDE4 | 
[V:4] z8 | 
[V:1] F8- :
[V:2] d2cBA2d2- | 
[V:3] D4z2F2- | 
[V:4] z8 | 
[V:1] F8 | 
[V:2] dcBAB2AB | 
[V:3] FEDCD4 | 
[V:4] z8 | 
[V:1] E8- :
[V:2] c2BAG4 | 
[V:3] C4z2C2 | 
[V:4] z2G,2E,2G,2 | 
[V:1] E8 | 
[V:2] z2c4B2 | 
[V:3] E2F2G4 | 
[V:4] C,4z2E,2 | 
[V:1] E8- :
[V:2] c2G2A2GF | 
[V:3] z2C2E3F | 
[V:4] C,2E,2A,,4 | 
[V:1] E8 | 
[V:2] E4z2C2- | 
[V:3] G2A2E2A2 | 
[V:4] z2A,,3B,,C,D, | 
[V:1] E8- :
[V:2] CDEFG2C2 | 
[V:3] G2A2E4 | 
[V:4] E,2A,,2z2C,2- | 
[V:1] E8 | 
[V:2] z2c2B2c2 | 
[V:3] z4z2E2 | 
[V:4] C,D,E,F,G,2C,2 | 
[V:1] D8- :
[V:2] A2d4cB | 
[V:3] F2D4G2- | 
[V:4] z2D,2B,,2G,,2 | 
[V:1] D8 | 
[V:2] A4G4 | 
[V:3] G2^F2G4 | 
[V:4] D,4G,,4 | 
[V:1] C8- :
[V:2] z2c4BA | 
[V:3] C3DECF2- | 
[V:4] z2C,2A,,2F,,2 | 
[V:1] C8 | 
[V:2] G4F4 | 
[V:3] F2E2F2A2 | 
[V:4] C,4F,,4 | 
[V:1] D8- :
[V:2] z2A4B2 | 
[V:3] D3EF2G2- | 
[V:4] z8 | 
[V:1] D8 | 
[V:2] G2A2A2B2 | 
[V:3] G2D2F2G2 | 
[V:4] z8 | 
[V:1] E8- :
[V:2] G2A2E4 | 
[V:3] E4z2C2- | 
[V:4] z2A,,3B,,C,D, | 
[V:1] E8 | 
[V:2] z2C2E3F | 
[V:3] CDEFG2C2 | 
[V:4] E,2A,,2z2C,2- | 
[V:1] E8- :
[V:2] G2A2E4 | 
[V:3] z2C2B,2A,2 | 
[V:4] C,B,,A,,2G,,2A,,2 | 
[V:1] E8- | 
[V:2] z2G3FED | 
[V:3] B,4C4 | 
[V:4] E,,4z4 | 
[V:1] E8 |]  
[V:2] E8 |]  
[V:3] B,8 |]  
[V:4] E,,8 |]  



